X: 1
T: String Quartet in E\b Major opus 17 no 3 mvt 4
C: Franz Joseph Haydn
%%abc-version 2.0
%%abcx-abcm2ps-target-version 5.9.1 (29 Sep 2008)
%%abc-creator hum2abc beta
%%abcx-conversion-date 2021/02/14 14:38:36
%%abc-copyright Copyright (c) 1994, 2000 Center for Computer Assisted Research in the Humanities
%%abc-edited-by Frances Bennion
%%abcx-initial-encoding-date 1997/04/15
%%gracespace 0 6 6
%%humdrum-veritas 683942062
%%humdrum-veritas-data 903550346
%%linebreak <none>
%%barnumbers 0
L: 1/8
M: 4/4
N: Derived from op17n3-04.krn
Q: "Allegro di molto"
%%staves [1 2 3 4]
V: 1
V: 2
V: 3 clef=alto
V: 4 clef=bass
K: Eb
[V:1]z7 B [I:setbarnb1]|
[V:2]z7 z |
[V:3]z7 z |
[V:4]z7 z |
[V:1]eB B3/=A//B// cc BB |
[V:2]z8 |
[V:3]z8 |
[V:4]z8 |
[V:1]FF GG A2 zB |
[V:2]DD EE D2 z2 |
[V:3]B,B, B,B, B,2 z2 |
[V:4]A,A, G,G, F,2 z2 |
[V:1]eB B3/=A//B// cc BB |
[V:2]z8 |
[V:3]z8 |
[V:4]z8 |
[V:1]AA FF E2 zB/G/ |
[V:2]FF DD E2 z2 |
[V:3]CC A,A, G,2 z2 |
[V:4]A,,A,, B,,B,, E,2 z2 |
[V:1]E/G/E/G/ F/A/D/F/ E/G/B,/E/ G,B/G/ |
[V:2]EE DD E2 z2 |
[V:3]G,G, A,A, G,2 z2 |
[V:4]E,,E,, B,,B,, E,,2 z2 |
[V:1]E/G/E/G/ F/A/D/F/ EA Gc |
[V:2]EE DD EF EA |
[V:3]G,G, A,A, G,2 z2 |
[V:4]E,,E,, B,,B,, E,,2 z2 |
[V:1]Ba gc' be' d'c' |
[V:2]Gd eA Gc BA |
[V:3]E2 z2 E2 z2 |
[V:4]E,2 z2 E,2 z2 |
[V:1]b2 ag fd'/b/ e'/b/g/e/ |
[V:2]G2 FE DA GE |
[V:3]zE C=A, B,F EG |
[V:4]zE, A,=A, B,B, B,B, |
[V:1]bd'/b/ e'/b/g/e/ b2 zf |
[V:2]DA GE D2 z2 |
[V:3]F2 EG F2 z2 |
[V:4]B,B, B,B, B,2 z2 |
[V:1]d'b b3/=a//b// aa ee |
[V:2]z2 >F2 ec cB/=A/ |
[V:3]z8 |
[V:4]z8 |
[V:1]dB B=A/B/ AA ee |
[V:2]Bf ff ff ff |
[V:3]z2 >F2 ec cB/=A/ |
[V:4]z8 |
[V:1]d'b b3/=a//b// aa e'e' |
[V:2]f4 f4 |
[V:3]B2 d2 ce =Ac |
[V:4]z2 >F,2 EC CB,/=A,/ |
[V:1]d'b b3/=a//b// aa e'e' |
[V:2]f8 |
[V:3]B2 D2 CE =A,C |
[V:4]B,2 zF,, E,C, C,B,,/=A,,/ |
[V:1]d'b d'/b/d'/b/ e'c' e'/c'/e'/c'/ |
[V:2]f2 B2 c=A c/A/c/A/ |
[V:3]B,B BB =A4 |
[V:4]B,,B, B,B, B,B, B,B, |
[V:1]f'd' f'/d'/f'/d'/ g'e' =a'f' |
[V:2]dB d/B/d/B/ e4 |
[V:3]A4 G2 c2 |
[V:4]B,B, B,B, B,B, B,B, |
[V:1]b'>f' b'/f'/b'/f'/ b'2 =EE |
[V:2]d2 dd d2 =EE |
[V:3]B2 BB B2 =EE |
[V:4]B,2 z4 =E,E, |
[V:1]FF GG ED/E/ FF |
[V:2]FF GG ED/E/ FF |
[V:3]FF GG ED/E/ FF |
[V:4]F,F, G,G, E,D,/E,/ F,F, |
[V:1]b/B/=A/B/ c/B/d/B/ e/B/f/B/ g/B/=a/B/ |
[V:2]B,2 zA GD EC |
[V:3]B,2 z4 zE |
[V:4]B,,2 z6 |
[V:1]b/B/=A/B/ c/B/d/B/ e/B/f/B/ g/B/=a/B/ |
[V:2]B,2 zA GD EC |
[V:3]D2 z4 zE |
[V:4]B,,2 z6 |
[V:1]b/B/f/B/ _g/B/f/B/ g/B/=g/B/ a/B/=a/B/ |
[V:2]B,d ed e_d c_c |
[V:3]D2 z6 |
[V:4]B,,2 z6 |
[V:1]b/B/f/B/ _g/B/f/B/ g/B/=g/B/ a/B/=a/B/ |
[V:2]Bd ed e_d c_c |
[V:3]zA _GA GB AE |
[V:4]B,8 |
[V:1]b(3f/g/f/ bG bF b=E |
[V:2]B2 G2 F2 =E2 |
[V:3]D2 G2 F2 =E2 |
[V:4]B,2 G,2 F,2 =E,2 |
[V:1]F4 c4 |
[V:2]Fd dd F=A AA |
[V:3]FB BB FE EE |
[V:4]F,F, F,F, F,F, F,F, |
[V:1]B[B,D] [B,D][EC] [FD]z3 |
[V:2]B2 z3 f2 e/c/ |
[V:3]D2 z3 d2 c/=A/ |
[V:4]B,,2 z2 >B,,2 D,F, |
[V:1]z[B,D] [B,D][EC] [FD]z3 |
[V:2]d2 z3 d2 c/=A/ |
[V:3]B2 z3 F2 E/C/ |
[V:4]B,2 z2 >B,,2 D,F, |
[V:1]z[dF] [Fd][Ec] [BD]z3 |
[V:2]BD DE F2 zD |
[V:3]DB, B,C D2 z2 |
[V:4]B,2 z2 B,,2 z2 |
[V:1]z7 G |
[V:2]GD DC/D/ EE DG- |
[V:3]=B,4 CC B,B, |
[V:4]G,,G, G,G, G,,G, G,G, |
[V:1]cF F=E/F/ B_E zE |
[V:2]GA2 <F2 G E2- |
[V:3]C4 B,4 |
[V:4]A,,A, A,A, G,,G, G,G, |
[V:1]AD DC/D/ GC zC |
[V:2]EF2 <D2 E C2- |
[V:3]A,4 G,4 |
[V:4]F,,F, F,F, E,,E, E,E, |
[V:1]FB, B,=A,/B,/ EA, zA, |
[V:2]CD2 <B,2 C =A,e |
[V:3]F,4 E,3 C |
[V:4]D,,D, D,D, C,,C, C,C, |
[V:1]DF FE/F/ GG =AA |
[V:2]dB BB B4- |
[V:3]B,D DC/D/ EE CC |
[V:4]B,,2 z6 |
[V:1]BF FE/F/ GG =AA |
[V:2]B8- |
[V:3]DD DC/D/ EE CC |
[V:4]B,,2 z6 |
[V:1]B8- |
[V:2]BF FE/F/ GG AA |
[V:3]DD DC/D/ EE FF |
[V:4]B,,2 z4 zB, |
[V:1]Bg gf/e/ fc'/b/ a/g/f/e/ |
[V:2]Ge ee ee ed/e/ |
[V:3]E2 >G2 F/G/A/G/ FF |
[V:4]EB, B,A,/G,/ A,F zA, |
[V:1]dB, fe/d/ eb/a/ g/f/e/d/ |
[V:2]d4 dd dc/d/ |
[V:3]F2 >F2 E/F/G/F/ EE |
[V:4]B,F A,G,/F,/ G,E zG, |
[V:1]cA, ed/c/ da/g/ f/e/d/c/ |
[V:2]c4 cc cB/c/ |
[V:3]E2 >E2 D/E/F/E/ DD |
[V:4]A,E G,F,/E,/ F,D zF, |
[V:1]BG, dc/B/ cg/f/ e/d/c/B/ |
[V:2]B4 BB BA/B/ |
[V:3]D2 >D2 C/D/E/D/ CC |
[V:4]G,D F,E,/D,/ E,C zE, |
[V:1]AA, cB/A/ Bf/e/ d/c/B/A/ |
[V:2]A4 AA A_G/A/ |
[V:3]C2 >C2 B,/C/D/C/ B,B, |
[V:4]F,C E,D,/C,/ D,B, zD, |
[V:1]_GB2 e2 _g2 b- |
[V:2]_GB BB BB BB |
[V:3]B,E EE EE EE |
[V:4]E,E, E,E, _D,D, D,D, |
[V:1]be'2 _g'2 =A AA |
[V:2]BB BB =A_G FE |
[V:3]EE EE EE EE |
[V:4]_C,C, C,C, C,C, C,C, |
[V:1]BB EE D2 zB |
[V:2]FF =A,A, B,2 z2 |
[V:3]DD CC B,2 z2 |
[V:4]B,,B,, B,,B,, B,,2 z2 |
[V:1]eB B3/=A//B// cc BB |
[V:2]z8 |
[V:3]z8 |
[V:4]z8 |
[V:1]FF GG A2 z2 |
[V:2]DD EE D2 z2 |
[V:3]B,B, B,B, B,2 z2 |
[V:4]A,A, G,G, F,2 z2 |
[V:1]GG AA B2 z2 |
[V:2]=EE FF E2 zc |
[V:3]CC CC C2 z2 |
[V:4]B,B, A,A, G,2 z2 |
[V:1]z4 bb aa |
[V:2]fc cB/c/ _dd cc |
[V:3]z4 GG AA |
[V:4]z4 =EE FF |
[V:1]aa gg f/g/a/g/ fe |
[V:2]_cc BB =cc cc |
[V:3]FF GG AA AF |
[V:4]DD EE A,A, A,=A, |
[V:1]d/B/=A/B/ c/B/d/B/ e/B/f/B/ g/B/=a/B/ |
[V:2]B2 zA GD EC |
[V:3]F2 z4 zE |
[V:4]B,2 z6 |
[V:1]b/B/=A/B/ _A/B/G/B/ F/B/G/B/ A/B/F/B/ |
[V:2]B,2 FE DE FD |
[V:3]D2 >E2 FE DF |
[V:4]B,2 z6 |
[V:1]G/E/D/E/ F/E/G/E/ A/E/B/E/ c/E/d/E/ |
[V:2]E7 A |
[V:3]E2 >_D2 CG, A,F, |
[V:4]E,2 z6 |
[V:1]e/E/D/E/ _D/E/C/E/ G,/E/C/E/ D/E/B,/E/ |
[V:2]G2 B,A, G,A, B,G, |
[V:3]G,2 >A,2 B,A, G,B, |
[V:4]E,2 z6 |
[V:1]Cc2 A2 F2 E |
[V:2]CC CC CC CC |
[V:3]CA, A,A, A,A, A,F, |
[V:4]A,,A,, A,,A,, A,,A,, A,,=A,, |
[V:1]DB, B,B, B,2 zB |
[V:2]B,B, B,B, B,2 z2 |
[V:3]F,B, B,B, B,2 z2 |
[V:4]B,,B,, B,,B,, B,,2 z2 |
[V:1]ge e3/d//e// dd AA |
[V:2]z2 >B,2 AF2 E/D/ |
[V:3]z8 |
[V:4]z8 |
[V:1]GE E3/D//E// DD AA |
[V:2]EB BB B4- |
[V:3]z2 >B,2 AF FE/D/ |
[V:4]z8 |
[V:1]ge e3/d//e// dd aa |
[V:2]B8 |
[V:3]E2 G2 FA DF |
[V:4]z2 >B,,2 A,F, F,E,/D,/ |
[V:1]ge e3/d//e// dd aa |
[V:2]B8 |
[V:3]E2 G2 FA DF |
[V:4]E,2 zB,, A,F, F,E,/D,/ |
[V:1]ge g/e/g/e/ af a/f/a/f/ |
[V:2]B2 e2 fd f/d/f/d/ |
[V:3]EE EE D4 |
[V:4]E,E, E,E, E,E, E,E, |
[V:1]bg b/g/b/g/ c'a d'b |
[V:2]ge g/e/g/e/ a4 |
[V:3]_D4 C2 F2 |
[V:4]E,E, E,E, E,E, E,E, |
[V:1]e'>b e'/b/e'/b/ e'2 =A,A, |
[V:2]g2 gg g2 =A,A, |
[V:3]E2 EE E2 =A,A, |
[V:4]E,z4 z =A,,A,, |
[V:1]B,B, CC A,G,/A,/ B,B, |
[V:2]B,B, CC A,G,/A,/ B,B, |
[V:3]B,B, CC A,G,/A,/ B,B, |
[V:4]B,,B,, C,C, A,,G,,/A,,/ B,,B,, |
[V:1]e/E/D/E/ F/E/G/E/ A/E/B/E/ c/E/d/E/ |
[V:2]E2 z_d cG AF |
[V:3]E2 z4 zA |
[V:4]E,2 z6 |
[V:1]e/E/D/E/ F/E/G/E/ A/E/B/E/ c/E/d/E/ |
[V:2]E2 z_d cG AF |
[V:3]G2 z4 zA |
[V:4]E,2 z6 |
[V:1]e/E/B/E/ _c/E/B/E/ c/E/=c/E/ _d/E/=d/E/ |
[V:2]EG AG A_G F_F |
[V:3]G2 z6 |
[V:4]E,2 z6 |
[V:1]e/E/B/E/ _c/E/B/E/ c/E/=c/E/ _d/E/=d/E/ |
[V:2]EG AG A_G F_F |
[V:3]z_D _CD CE DA, |
[V:4]E,,8 |
[V:1]e(3B/c/B/ eC eB, e=A, |
[V:2]E2 C2 B,2 =A,2 |
[V:3]G,2 C2 B,2 =A,2 |
[V:4]E,,2 C,2 B,,2 =A,,2 |
[V:1]B,4 F4 |
[V:2]B,G GG B,D DD |
[V:3]B,E EE B,A, A,A, |
[V:4]B,,B,, B,,B,, B,,B,, B,,B,, |
[V:1]E[GB,] [B,G][A,F] [G,2E2] z2 |
[V:2]E2 z3 B2 A/F/ |
[V:3]G,2 z3 G2 F/D/ |
[V:4]E,2 z2 >E,,2 G,,B,, |
[V:1]z[B,G] [GB,][A,F] [G,2E2] z2 |
[V:2]G2 z3 G2 F/D/ |
[V:3]E2 z3 B,2 A,/F,/ |
[V:4]E,2 z2 >E,,2 G,,B,, |
[V:1]z[B,G] [GB,][A,F] [G,2E2] z2 |]
[V:2]EG, G,A, B,2 z2 |]
[V:3]G,E, E,F, G,2 z2 |]
[V:4]E,2 z2 E,,2 z2 |]

